X:72
T:Awake my fairest creature
Z:Jack Campin - http://www.campin.me.uk
S:Blaikie MS (NLS MS.1578) p22, Blaikie #66
M:3/4
L:1/4
V:1 midi program 1 74
V:2 midi program 1 46 bass middle = d transpose -24
Q:1/4=90
K:A
[V:1] E   |A2  B//c//d/|c2B|A2B|cEE/D/|CDE|A2B|d2c|{c}B2
[V:2] z   |A a e       |Aae|c2B|Aaz   |A3 |c2e|fga|   e2
%
[V:1] c/d/|e2  d       |c2B|A2B|cED   |C2E|A2d|c2B|   A2|]
[V:2] z   |c'2 b       |aAe|cAe|Aae   |Aae|czd|eEe|   A2|]
W:Transcription (c) Jack Campin 2009, no mirroring or republication without permission

